src/static/logos/bugherd.svg

<?xml version="1.0" encoding="UTF-8" standalone="no"?>
<svg width="256px" height="256px" viewBox="0 0 256 256" version="1.1" xmlns="http://www.w3.org/2000/svg" xmlns:xlink="http://www.w3.org/1999/xlink" preserveAspectRatio="xMidYMid">
	<g>
		<path d="M134.395314,255.707094 L121.800348,255.707094 C121.337263,255.613364 120.877986,255.489757 120.410508,255.430005 C114.659881,254.695689 108.835442,254.329263 103.168879,253.183121 C75.2499405,247.535597 51.4800183,234.254645 32.7958261,212.761483 C3.82008238,179.429053 -5.9307643,140.756357 4.14022883,97.8224622 C17.2735561,41.8334462 66.6364485,2.10277346 123.908394,0.272695652 C125.159982,0.232860412 126.408641,0.0931441648 127.658764,0 L128.830389,0 C129.246316,0.0773272311 129.662243,0.221437071 130.078462,0.222022883 C138.108778,0.231395881 146.056494,1.12183066 153.896128,2.77675057 C182.140192,8.73827002 205.972503,22.4828924 224.735195,44.387881 C248.852503,72.544659 258.840311,105.329062 255.090819,142.230554 C253.597584,156.925364 249.484888,170.908705 242.910609,184.124339 C229.884192,210.309272 210.204705,229.890929 183.989895,242.837968 C170.034087,249.730343 155.248769,253.780064 139.7347,255.144128 C137.952073,255.300833 136.175011,255.517876 134.395314,255.707094 L134.395314,255.707094 Z M57.3563021,125.85827 C60.0624622,123.107295 61.1409428,121.174114 61.2053822,118.607085 C61.2742151,115.875442 61.2999908,113.137941 61.2021602,110.407762 C61.0267094,105.525309 58.1014554,101.950682 53.2632311,101.376879 C49.4109291,100.919945 45.4757346,101.045602 41.5809611,101.117364 C39.8030206,101.150169 38.565492,102.775213 38.5631487,104.673831 C38.5449886,119.366883 38.5414737,134.059936 38.5672494,148.752989 C38.5710572,150.858105 40.0877254,152.289831 42.2276979,152.31297 C45.4490801,152.347533 48.6725126,152.384146 51.8927231,152.307112 C58.1477346,152.157437 62.6245126,147.544751 62.6447231,141.316979 C62.651167,139.217721 62.6406224,137.118755 62.6467735,135.019789 C62.6581968,130.995551 61.2135835,127.798188 57.3563021,125.85827 L57.3563021,125.85827 Z M129.721117,122.387625 C129.721117,121.76432 129.720824,121.237382 129.720824,120.710444 C129.720824,115.389217 129.723167,110.068284 129.720238,104.747057 C129.718481,101.995789 128.346508,100.470041 125.871158,100.455103 C123.354508,100.439579 121.926297,101.935158 121.924833,104.658892 C121.916632,119.353117 121.916339,134.047048 121.925126,148.740979 C121.926883,151.444211 123.381455,152.936568 125.908943,152.908741 C128.318389,152.882087 129.717016,151.353995 129.719359,148.723698 C129.724046,142.963405 129.720531,137.203112 129.720824,131.442526 L129.720824,129.861126 L138.322892,129.861126 L138.322892,131.679195 C138.323185,137.390865 138.311469,143.102535 138.329043,148.814206 C138.336952,151.424586 139.779222,152.905519 142.238169,152.909034 C144.713812,152.912549 146.117126,151.445675 146.121227,148.819478 C146.128549,143.937611 146.12357,139.056037 146.12357,134.174462 C146.123277,124.264568 146.126499,114.35438 146.120641,104.444485 C146.119469,102.408494 145.153757,101.031249 143.445529,100.564357 C140.707735,99.8162746 138.355991,101.518938 138.33578,104.354856 C138.297117,109.773327 138.323478,115.192384 138.322892,120.611149 L138.322892,122.387625 C135.396174,122.387625 132.676833,122.387625 129.721117,122.387625 L129.721117,122.387625 Z M101.530947,140.918041 C101.927835,140.985703 102.259405,141.04897 102.592732,141.099057 C109.308192,142.108119 114.402416,138.633373 115.253602,132.282581 C115.536549,130.171314 115.323314,127.995606 115.374572,125.850362 C115.425538,123.724156 115.26649,121.665904 113.667515,119.902316 C114.296384,119.820595 114.770892,119.78281 115.235735,119.694352 C117.626142,119.239762 118.578966,117.904989 118.22367,115.531863 C117.921684,113.515204 116.868979,112.82746 114.38865,113.031616 C114.097501,113.055634 113.808696,113.10865 113.51784,113.139991 C110.131259,113.502316 106.751707,113.986783 103.35546,114.194453 C98.6595881,114.481208 95.0688513,117.374243 94.2774188,122.022957 C93.9531716,123.927432 94.0621327,125.904549 93.9607872,127.848275 C93.75546,131.791963 94.1013822,135.577483 97.1692815,138.583286 C95.2141327,139.997144 93.992714,141.679304 93.8152128,143.991506 C93.6344897,146.343542 94.4130343,148.278481 96.5172723,149.64811 C96.0694188,149.957126 95.8330435,150.119982 95.5963753,150.28313 C92.8620961,152.165346 91.8175927,154.806481 92.2677895,158.025812 C92.7065629,161.164888 94.6622975,163.1133 97.589016,164.010178 C101.994911,165.360476 106.489849,165.536805 110.76335,163.693254 C112.610416,162.896256 114.47535,161.576714 115.70087,160.003222 C120.404943,153.962911 116.993172,145.371387 109.63654,144.483588 C107.614902,144.239304 105.542883,144.4294 103.49459,144.384586 C101.140796,144.332449 100.47297,143.215597 101.530947,140.918041 L101.530947,140.918041 Z M209.367286,116.977941 C208.628577,116.362252 208.148503,115.861675 207.578508,115.50433 C204.93503,113.846773 202.13514,113.706471 199.351066,115.016055 C196.768513,116.23103 195.778783,118.57135 195.758572,121.258471 C195.697062,129.453986 195.6666,137.651551 195.76443,145.846481 C195.818911,150.404979 199.082764,153.328183 203.644778,153.198426 C206.115735,153.128421 207.945812,151.862188 209.47859,149.826783 C209.989126,151.447725 210.809263,152.596796 212.434307,152.872128 C215.104732,153.325254 216.859533,151.830847 216.866563,149.033886 C216.887359,140.642709 216.874764,132.250947 216.874764,123.859771 C216.874764,117.371021 216.86627,110.88227 216.88033,104.393812 C216.883551,102.933382 216.512146,101.681501 215.171808,100.911744 C212.465941,99.3572906 209.386911,101.100082 209.372265,104.205181 C209.352641,108.391396 209.367286,112.577904 209.367286,116.977941 L209.367286,116.977941 Z M81.2225904,149.790755 C81.3596705,150.207854 81.4103432,150.395606 81.4821053,150.575158 C82.2407323,152.46616 83.7128787,153.24324 85.8267826,152.872714 C87.4825812,152.582151 88.3943982,151.342865 88.4201739,149.340851 C88.4263249,148.85287 88.4213455,148.364888 88.4213455,147.876906 C88.4213455,138.02032 88.4277895,128.163149 88.416659,118.306563 C88.41373,115.838828 87.0411716,114.498197 84.6126865,114.5146 C82.2462975,114.530709 80.9249977,115.900046 80.9203112,118.438957 C80.9050801,126.83189 80.9200183,135.225117 80.9003936,143.617465 C80.8989291,144.17633 80.8936568,144.91211 80.5656018,145.259789 C79.5954966,146.289062 78.307881,146.555021 76.9353227,146.15989 C75.7314783,145.813089 75.2748375,144.891899 75.2042471,143.724961 C75.1600183,142.995625 75.1128604,142.264531 75.1122746,141.534316 C75.1055378,133.873355 75.1160824,126.212394 75.1031945,118.551432 C75.0988009,115.895652 73.8041556,114.521629 71.3744989,114.5146 C68.9079359,114.50757 67.6045034,115.866947 67.6030389,118.488165 C67.5971808,127.417703 67.5801922,136.347533 67.608897,145.276778 C67.6261785,150.609135 70.6448696,153.476979 75.8776384,153.193153 C78.1874966,153.068082 79.937611,151.955332 81.2225904,149.790755 L81.2225904,149.790755 Z M159.921501,135.920476 C163.346453,135.920476 166.607963,135.929849 169.869474,135.916961 C171.962874,135.909053 173.002105,134.882709 173.020851,132.764705 C173.046334,129.837108 173.087634,126.907753 173.013529,123.981913 C172.87059,118.346105 169.107918,114.409446 163.779661,114.223451 C157.053657,113.98854 152.875643,117.06757 152.574243,123.199268 C152.227149,130.25567 152.282801,137.345465 152.499259,144.410654 C152.638682,148.955387 155.287432,151.923698 159.319579,152.82995 C160.588449,153.114947 161.928201,153.185245 163.235442,153.185245 C169.23211,153.184659 173.010307,149.256787 172.830169,143.281501 C172.763387,141.077675 171.539625,139.870316 169.338728,139.838389 C167.007487,139.804119 165.805693,140.945281 165.724558,143.270957 C165.7146,143.563277 165.720458,143.857355 165.691753,144.147918 C165.507222,146.008751 164.5213,146.981492 162.809849,147.002288 C161.135597,147.022792 160.011716,146.020174 159.946105,144.158755 C159.850911,141.4854 159.921501,138.805895 159.921501,135.920476 L159.921501,135.920476 Z M185.479616,118.096549 C185.183195,116.514856 184.695799,115.268833 183.119085,114.879268 C180.370746,114.200311 178.471249,115.65049 178.458362,118.482014 C178.436394,123.259606 178.451625,128.037492 178.451625,132.815085 C178.451625,138.177904 178.443716,143.54043 178.456311,148.903249 C178.461584,151.067533 179.349382,152.374188 181.048824,152.817355 C183.789254,153.531753 185.950902,151.895872 185.955002,149.061712 C185.967011,140.627478 185.958517,132.193245 185.960568,123.759304 C185.96086,122.116979 186.421895,121.71687 188.06832,121.915753 C188.839249,122.008897 189.610471,122.194892 190.380229,122.187863 C192.30433,122.170288 193.496751,120.783963 193.573785,118.584531 C193.662243,116.074325 192.664604,114.711432 190.599616,114.521629 C187.908394,114.274416 186.855982,114.979442 185.479616,118.096549 Z M46.3011442,145.50876 L46.3011442,129.640275 C48.0433501,129.640275 49.7468924,129.481519 51.4073776,129.681867 C53.325913,129.91297 54.5900961,131.158993 54.6981785,133.06054 C54.8665995,136.019478 54.8718719,139.001263 54.7043295,141.959908 C54.5956613,143.875808 53.2884211,144.988265 51.3786728,145.304897 C50.7073318,145.416494 50.023103,145.477712 49.3426819,145.500558 C48.3763844,145.533071 47.4083295,145.50876 46.3011442,145.50876 Z M46.3119817,122.715094 L46.3119817,107.780394 C47.9267735,107.892577 49.4727323,107.909272 50.9879359,108.134224 C52.1911945,108.312897 53.1560275,109.159982 53.2099222,110.359432 C53.3508101,113.505831 53.4082197,116.668339 53.2389199,119.810636 C53.1563204,121.342828 51.9530618,122.312641 50.3801556,122.49805 C49.0869748,122.650362 47.775341,122.643332 46.3119817,122.715094 Z M101.311561,127.731405 C101.310389,126.364705 101.24097,124.994197 101.326499,123.633062 C101.454206,121.597657 102.684998,120.421638 104.569556,120.387661 C106.558389,120.351927 107.906343,121.49924 107.990407,123.589419 C108.10054,126.31784 108.093803,129.056513 107.996558,131.785812 C107.92216,133.868961 106.572741,135.061675 104.614371,135.040586 C102.730105,135.020668 101.465629,133.842892 101.330307,131.829162 C101.23892,130.469199 101.312732,129.097812 101.311561,127.731405 Z M104.582151,158.971314 C103.906709,158.886957 103.219844,158.85503 102.557876,158.709162 C99.7043844,158.081465 98.6592952,155.230316 100.199982,152.335817 C100.806883,151.195826 101.545886,150.388284 103.049666,150.590975 C104.34314,150.765547 105.675277,150.635204 106.978709,150.759982 C108.545757,150.910243 109.743744,151.627277 110.181931,153.277803 C110.623341,154.94151 110.145025,156.795021 108.677272,157.664952 C107.463762,158.383744 106.023249,158.719707 104.683497,159.224677 C104.649812,159.140027 104.616128,159.05567 104.582151,158.971314 Z M209.366993,133.710499 C209.366993,137.123442 209.368458,140.537263 209.366407,143.950206 C209.365236,145.637346 208.658746,146.395387 206.848293,146.664275 C205.181364,146.912073 203.937684,146.245419 203.499497,144.79524 C203.333419,144.245455 203.253162,143.648805 203.251405,143.073245 C203.234416,136.783085 203.222114,130.492632 203.249062,124.202471 C203.261071,121.348686 205.278023,119.986673 207.838902,121.03557 C208.859973,121.45384 209.440805,122.04346 209.402142,123.325217 C209.298746,126.784146 209.366993,130.248348 209.366993,133.710499 Z M165.507808,129.904476 L159.980961,129.904476 C159.980961,127.510847 159.867899,125.188979 160.020503,122.884394 C160.123314,121.328183 161.33243,120.467918 162.831231,120.497501 C164.310114,120.526792 165.365162,121.301822 165.468851,122.866526 C165.62087,125.168769 165.507808,127.488586 165.507808,129.904476 Z" fill="#222222"></path>
		<path d="M227.038316,143.769483 C229.737739,143.750737 231.564302,145.524284 231.592421,148.19178 C231.621712,150.943634 229.774059,152.853675 227.088403,152.849281 C224.460449,152.844888 222.623048,150.984934 222.60811,148.313629 C222.592879,145.613913 224.372577,143.788229 227.038316,143.769483 L227.038316,143.769483 Z" fill="#6DB6D1"></path>
	</g>
</svg>

<svg width="256" height="256" xmlns="http://www.w3.org/2000/svg" preserveAspectRatio="xMidYMid"><path d="M134.395 255.707H121.8c-.463-.094-.922-.217-1.39-.277-5.75-.734-11.575-1.1-17.241-2.247-27.92-5.647-51.689-18.928-70.373-40.422C3.82 179.43-5.931 140.756 4.14 97.822 17.274 41.833 66.636 2.102 123.908.272c1.252-.04 2.5-.179 3.75-.272h1.172c.416.077.832.221 1.248.222 8.03.01 15.978.9 23.818 2.555 28.244 5.961 52.077 19.706 70.84 41.61 24.117 28.158 34.104 60.942 30.355 97.844-1.493 14.694-5.606 28.678-12.18 41.893-13.027 26.185-32.706 45.767-58.921 58.714-13.956 6.892-28.741 10.942-44.255 12.306-1.783.157-3.56.374-5.34.563zM57.356 125.858c2.706-2.75 3.785-4.684 3.85-7.25.068-2.733.094-5.47-.004-8.2-.175-4.883-3.1-8.457-7.939-9.031-3.852-.457-7.787-.331-11.682-.26-1.778.033-3.016 1.658-3.018 3.557-.018 14.693-.022 29.386.004 44.079.004 2.105 1.52 3.537 3.66 3.56 3.222.035 6.446.071 9.666-.006 6.255-.15 10.732-4.762 10.752-10.99.006-2.1-.004-4.198.002-6.297.011-4.024-1.433-7.222-5.29-9.162zm72.365-3.47v-1.678c0-5.32.002-10.642 0-15.963-.003-2.751-1.374-4.277-3.85-4.292-2.516-.015-3.945 1.48-3.946 4.204a38129.47 38129.47 0 000 44.082c.002 2.703 1.456 4.196 3.984 4.168 2.41-.027 3.808-1.555 3.81-4.185.005-5.76.002-11.52.002-17.281v-1.582h8.602v1.818c0 5.712-.012 11.424.006 17.135.008 2.61 1.45 4.092 3.91 4.095 2.475.004 3.878-1.463 3.882-4.09.008-4.881.003-9.763.003-14.645 0-9.91.002-19.82-.003-29.73-.002-2.036-.967-3.413-2.675-3.88-2.738-.748-5.09.955-5.11 3.79-.039 5.42-.013 10.838-.013 16.257v1.777h-8.602zm-28.19 18.53c.397.068.728.131 1.062.181 6.715 1.01 11.81-2.466 12.66-8.816.284-2.112.07-4.287.122-6.433.05-2.126-.109-4.184-1.707-5.948.628-.081 1.103-.12 1.568-.208 2.39-.454 3.343-1.789 2.988-4.162-.302-2.017-1.355-2.705-3.835-2.5-.291.024-.58.077-.871.108-3.387.362-6.766.847-10.163 1.054-4.695.287-8.286 3.18-9.078 7.829-.324 1.904-.215 3.882-.316 5.825-.206 3.944.14 7.73 3.208 10.735-1.955 1.414-3.176 3.096-3.354 5.409-.18 2.352.598 4.286 2.702 5.656l-.92.635c-2.735 1.882-3.78 4.523-3.33 7.743.44 3.139 2.395 5.087 5.322 5.984 4.406 1.35 8.9 1.527 13.174-.317 1.847-.797 3.712-2.116 4.938-3.69 4.704-6.04 1.292-14.632-6.064-15.52-2.022-.244-4.094-.054-6.142-.098-2.354-.053-3.022-1.17-1.964-3.467zm107.836-23.94c-.738-.616-1.218-1.116-1.788-1.474-2.644-1.657-5.444-1.798-8.228-.488-2.582 1.215-3.572 3.555-3.592 6.242-.062 8.196-.092 16.394.005 24.588.055 4.559 3.319 7.482 7.88 7.352 2.472-.07 4.302-1.336 5.835-3.371.51 1.62 1.33 2.77 2.955 3.045 2.67.453 4.426-1.041 4.433-3.838.02-8.391.008-16.783.008-25.174 0-6.489-.009-12.978.005-19.466.004-1.46-.368-2.712-1.708-3.482-2.706-1.555-5.785.188-5.8 3.293-.02 4.186-.005 8.373-.005 12.773zM81.223 149.79c.137.417.187.605.26.784.758 1.891 2.23 2.668 4.344 2.298 1.656-.29 2.567-1.53 2.593-3.532.006-.488.001-.976.001-1.464 0-9.857.007-19.714-.004-29.57-.003-2.468-1.376-3.809-3.804-3.792-2.367.016-3.688 1.385-3.693 3.924-.015 8.393 0 16.786-.02 25.178-.001.56-.006 1.295-.334 1.643-.97 1.03-2.258 1.295-3.63.9-1.205-.347-1.661-1.268-1.732-2.435-.044-.73-.091-1.46-.092-2.19-.006-7.662.004-15.323-.009-22.984-.004-2.655-1.299-4.03-3.729-4.036-2.466-.007-3.77 1.352-3.771 3.973-.006 8.93-.023 17.86.006 26.789.017 5.332 3.036 8.2 8.269 7.916 2.31-.125 4.06-1.238 5.345-3.402zm78.699-13.87c3.424 0 6.686.009 9.947-.004 2.094-.008 3.133-1.034 3.152-3.152.025-2.928.067-5.857-.007-8.783-.143-5.636-3.906-9.573-9.234-9.759-6.726-.234-10.904 2.845-11.206 8.976-.347 7.057-.291 14.146-.075 21.212.14 4.544 2.788 7.513 6.82 8.419 1.27.285 2.61.355 3.916.355 5.997 0 9.775-3.928 9.595-9.903-.067-2.204-1.29-3.412-3.491-3.444-2.332-.034-3.533 1.107-3.614 3.433-.01.292-.005.586-.033.877-.185 1.86-1.17 2.833-2.882 2.854-1.674.02-2.798-.982-2.864-2.843-.095-2.674-.024-5.353-.024-8.239zm25.558-17.824c-.297-1.582-.784-2.828-2.36-3.218-2.75-.679-4.649.771-4.662 3.603-.022 4.778-.006 9.555-.006 14.333 0 5.363-.008 10.725.004 16.088.006 2.165.893 3.471 2.593 3.914 2.74.715 4.902-.921 4.906-3.755.012-8.435.004-16.869.006-25.303 0-1.642.46-2.042 2.107-1.843.771.093 1.542.279 2.312.272 1.924-.018 3.117-1.404 3.194-3.603.088-2.51-.91-3.874-2.974-4.063-2.692-.248-3.744.457-5.12 3.575zM46.3 145.509V129.64c1.742 0 3.446-.158 5.106.042 1.919.231 3.183 1.477 3.291 3.379.169 2.958.174 5.94.006 8.899-.108 1.916-1.416 3.028-3.325 3.345a15.8 15.8 0 01-2.036.196c-.967.032-1.935.008-3.042.008zm.011-22.794V107.78c1.615.113 3.16.13 4.676.354 1.203.179 2.168 1.026 2.222 2.225.14 3.147.198 6.31.029 9.452-.083 1.532-1.286 2.502-2.859 2.687-1.293.152-2.605.145-4.068.217zm55 5.016c-.002-1.366-.071-2.737.014-4.098.128-2.035 1.359-3.211 3.244-3.245 1.988-.036 3.336 1.111 3.42 3.201.11 2.729.104 5.468.007 8.197-.075 2.083-1.424 3.276-3.383 3.255-1.884-.02-3.148-1.198-3.284-3.212-.091-1.36-.017-2.731-.018-4.098zm3.27 31.24c-.675-.084-1.362-.116-2.024-.262-2.854-.628-3.899-3.479-2.358-6.373.607-1.14 1.346-1.948 2.85-1.745 1.293.175 2.625.044 3.929.169 1.567.15 2.765.867 3.203 2.518.441 1.664-.037 3.517-1.505 4.387-1.213.719-2.654 1.055-3.994 1.56a65.267 65.267 0 00-.1-.254zm104.785-25.26v10.24c-.002 1.686-.708 2.444-2.519 2.713-1.667.248-2.91-.419-3.349-1.869a6.098 6.098 0 01-.248-1.722c-.017-6.29-.029-12.58-.002-18.87.012-2.854 2.029-4.216 4.59-3.167 1.021.418 1.602 1.007 1.563 2.29-.103 3.458-.035 6.922-.035 10.384zm-43.86-3.807h-5.526c0-2.393-.113-4.715.04-7.02.102-1.556 1.311-2.416 2.81-2.386 1.48.029 2.534.804 2.638 2.369.152 2.302.039 4.622.039 7.037z" fill="#222"/><path d="M227.038 143.77c2.7-.02 4.526 1.754 4.554 4.422.03 2.752-1.818 4.662-4.504 4.657-2.628-.004-4.465-1.864-4.48-4.535-.015-2.7 1.765-4.526 4.43-4.545z" fill="#6DB6D1"/></svg>
